!!!OTL: Ramona
!!!COM: Wayne, Mabel
!!!LYR: Gilbert, L. Wolfe
!!!LAR: Frey, Hugo
!! "Ramona" by Mabel Wayne, lyrics by L. Wolfe Gilbert
!! from "Barbershop Memories" compiled and arranged by Hugo Frey
!! copyright 1975 by EMI Music Publ. Ltd.; pp. 16-17; in E- major
!! NOTE:  The second ending is encoded.
**kern	**kern	**kern	**kern
*Ivox	*Ivox	*Ivox	*Ivox
*M3/4	*M3/4	*M3/4	*M3/4
*E-:	*E-:	*E-:	*E-:
8BB-	8BB-	8BB-	8BB-
=1	=1	=1	=1
4E-	4E-	4G	4B-
4.E-	4.E-	4.G	4.B-
8E-	8E-	8G	8B-
=2	=2	=2	=2
8F	8F	8A-	8B-
8E-	8E-	8G	8B-
8BB-	8D	8F	8B-
8GG	8E-	8E-	8B-
8BB-	8D	8F	8B-
8E-	8E-	8G	8B-
=3	=3	=3	=3
{4D	2F	[2.A-	{4B-
4C}	.	.	4c}
4C-	4F	.	4e-
=4	=4	=4	=4
2BB-	2F	2A-]	2d
8r	8r	8r	8r
8BB-	8BB-	8BB-	8B-
=5	=5	=5	=5
4D	4F	4A-	4B-
4.D	4.F	4.A-	4.B-
8BB-	8F	8A-	8d
=6	=6	=6	=6
8BB-	8G	8B-	8d
8BB-	8F	8A-	8d
8BB-	8G	8G	8d
8BB-	8A-	8F	8d
8BB-	8B-	8G	8e-
8BB-	8B-	8A-	8f
=7	=7	=7	=7
{4E-	2G	[2.B-	2g
4BB-}	.	.	.
4E-	4B-	.	4g
=8	=8	=8	=8
[4A-	{4d	4B-_	[4f#
4A-]	4c}	4B-]	4f#]
8r	8r	8r	8r
4D	4A-	4B-	4B-
=9	=9	=9	=9
4E-	4B-	4e-	4g
4.E-	4.B-	4.e-	4.g
8E-	8B-	8d	8g
=10	=10	=10	=10
4E-	4B-	4d	4g
4.E-	4.B-	4.c	4.g
8E-	8G	8B-	8e-
=11	=11	=11	=11
8.F	8.A-	8.d	8.B-
16F	16A-	16e-	16c
8.BB-	8.A-	8.f	8.d
16BB-	16A-	16e-	16c
12BB-	12B-	12d	12d
12BB-	12A-	12c	12d
12BB-	12G	12B-	12d
=12	=12	=12	=12
2BB-	2F	2A-	2d
8r	8r	8r	8r
8BB-	8A-	8B-	8d
=13	=13	=13	=13
4BB-	4A-	4d	4f
4.BB-	4.A-	4.d	4.f
8BB-	8G	8c	8e-
=14	=14	=14	=14
4BB-	4G	4c	4e-
4.BB-	4.F	4.B-	4.d
8BB-	8F#	8An	8d
=15	=15	=15	=15
8.E-	8.G	8.B-	8.e-
16E-	16A-	16c	16e-
8.E-	8.B-	8.d	8.e-
16E-	16A-	16c	16e-
12E-	12G	12B-	12e
12C	12F#	12An	12e-
12D	12Fn	12A-	12B-
=16	=16	=16	=16
4E-	2E-	2G	2B-
{4C	.	.	.
8BB-}	8r	8r	8r
8BB-	8BB-	8BB-	8B-
=17	=17	=17	=17
4E-	4E-	4G	4B-
4.E-	4.E-	4.G	4.B-
8E-	8E-	8G	8B-
=18	=18	=18	=18
8F	8F	8A-	8B-
8E-	8E-	8G	8B-
8BB-	8D	8F	8B-
8GG	8E-	8E-	8B-
8BB-	8D	8F	8B-
8E-	8E-	8G	8B-
=19	=19	=19	=19
{4D	2F	[2.A-	{4B-
4C}	.	.	4c}
{4C-	[4F	.	{4e-
=20	=20	=20	=20
2BB-}	2F]	2A-]	2d}
8r	8r	8r	8r
8BB-	8BB-	8BB-	8B-
=21	=21	=21	=21
4D	4F	4A-	4B-
4.D	4.F	4.A-	4.B-
8BB-	8F	8A-	8d
=22	=22	=22	=22
8BB-	8G	8B-	8d
8BB-	8F	8A-	8d
8BB-	8G	8G	8d
8BB-	8A-	8F	8d
8BB-	8B-	8G	8e-
8BB-	8B-	8A-	8f
=23	=23	=23	=23
[2.C	{4A-	[2.c	[2.en
.	4G	.	.
.	8B-	.	.
.	8A-	.	.
=24	=24	=24	=24
2C]	2G}	2c]	2e]
4C	4En	4B-	4c
=25	=25	=25	=25
{4AA-	2F	2c	2A-
4C}	.	.	.
4F	4A-	4d	4c
=26	=26	=26	=26
{4F	2A-	2f	2c-
4E-}	.	.	.
4C-	4An	4e-	4f#
=27	=27	=27	=27
4BB-	4B-	8.d	4g
.	.	16e-	.
4D	4An	8.c	4f#
.	.	16d	.
4D-	4F	8.B-	4fn
.	.	16c	.
=28	=28	=28	=28
2C	2B-	2G	2en
8r	8r	8r	8r
8En	8G	8C	8c
=29	=29	=29	=29
4F	4F	4A-	4c
4.FF	4.F	4.A-	4.c
8F	8A-	8c	8c
=30	=30	=30	=30
4BB-	4A-	4d	4g
4.BB-	4.A-	4.d	4.g
8D	8A-	8B-	8B-
=31	=31	=31	=31
2E-	2G	2B-	2e-
{8E-	{8A-	{8c	4f#
8D}	8An}	8d}	.
=32	=32	=32	=32
2.E-;	2.B-;	2.e-;	2.g;
==	==	==	==
*-	*-	*-	*-
